images/3235526.svg

<?xml version="1.0" encoding="UTF-8"?>
<svg xmlns="http://www.w3.org/2000/svg" xmlns:xlink="http://www.w3.org/1999/xlink" width="300pt" height="300pt" viewBox="0 0 300 300" version="1.1">
<defs>
<g>
<symbol overflow="visible" id="glyph0-0">
<path style="stroke:none;" d="M 0.796875 2.828125 L 0.796875 -11.28125 L 8.796875 -11.28125 L 8.796875 2.828125 Z M 1.703125 1.9375 L 7.90625 1.9375 L 7.90625 -10.390625 L 1.703125 -10.390625 Z M 1.703125 1.9375 "/>
</symbol>
<symbol overflow="visible" id="glyph0-1">
<path style="stroke:none;" d="M 6.3125 -10.59375 C 5.164062 -10.59375 4.253906 -10.164062 3.578125 -9.3125 C 2.898438 -8.457031 2.5625 -7.296875 2.5625 -5.828125 C 2.5625 -4.359375 2.898438 -3.195312 3.578125 -2.34375 C 4.253906 -1.488281 5.164062 -1.0625 6.3125 -1.0625 C 7.457031 -1.0625 8.363281 -1.488281 9.03125 -2.34375 C 9.695312 -3.195312 10.03125 -4.359375 10.03125 -5.828125 C 10.03125 -7.296875 9.695312 -8.457031 9.03125 -9.3125 C 8.363281 -10.164062 7.457031 -10.59375 6.3125 -10.59375 Z M 6.3125 -11.875 C 7.945312 -11.875 9.253906 -11.328125 10.234375 -10.234375 C 11.210938 -9.140625 11.703125 -7.671875 11.703125 -5.828125 C 11.703125 -3.984375 11.210938 -2.507812 10.234375 -1.40625 C 9.253906 -0.3125 7.945312 0.234375 6.3125 0.234375 C 4.664062 0.234375 3.351562 -0.3125 2.375 -1.40625 C 1.394531 -2.507812 0.90625 -3.984375 0.90625 -5.828125 C 0.90625 -7.671875 1.394531 -9.140625 2.375 -10.234375 C 3.351562 -11.328125 4.664062 -11.875 6.3125 -11.875 Z M 6.3125 -11.875 "/>
</symbol>
<symbol overflow="visible" id="glyph0-2">
<path style="stroke:none;" d="M 1.578125 -11.671875 L 3.703125 -11.671875 L 8.875 -1.90625 L 8.875 -11.671875 L 10.40625 -11.671875 L 10.40625 0 L 8.28125 0 L 3.109375 -9.765625 L 3.109375 0 L 1.578125 0 Z M 1.578125 -11.671875 "/>
</symbol>
</g>
</defs>
<g id="surface47573">
<rect x="0" y="0" width="300" height="300" style="fill:rgb(100%,100%,100%);fill-opacity:1;stroke:none;"/>
<path style="fill:none;stroke-width:1.2;stroke-linecap:butt;stroke-linejoin:miter;stroke:rgb(0%,0%,0%);stroke-opacity:1;stroke-miterlimit:10;" d="M 38.25 233.511719 L 70.144531 212.398438 "/>
<path style="fill:none;stroke-width:1.2;stroke-linecap:butt;stroke-linejoin:miter;stroke:rgb(0%,0%,0%);stroke-opacity:1;stroke-miterlimit:10;" d="M 68.140625 216.425781 L 85.253906 224.957031 "/>
<path style="fill:none;stroke-width:1.2;stroke-linecap:butt;stroke-linejoin:miter;stroke:rgb(100%,0%,0%);stroke-opacity:1;stroke-miterlimit:10;" d="M 85.253906 224.957031 L 102.371094 233.488281 "/>
<path style="fill:none;stroke-width:1.2;stroke-linecap:butt;stroke-linejoin:miter;stroke:rgb(0%,0%,0%);stroke-opacity:1;stroke-miterlimit:10;" d="M 72.152344 208.371094 L 89.269531 216.902344 "/>
<path style="fill:none;stroke-width:1.2;stroke-linecap:butt;stroke-linejoin:miter;stroke:rgb(100%,0%,0%);stroke-opacity:1;stroke-miterlimit:10;" d="M 89.269531 216.902344 L 106.386719 225.433594 "/>
<path style="fill:none;stroke-width:1.2;stroke-linecap:butt;stroke-linejoin:miter;stroke:rgb(0%,0%,0%);stroke-opacity:1;stroke-miterlimit:10;" d="M 70.144531 212.398438 L 68.976562 193.308594 "/>
<path style="fill:none;stroke-width:1.2;stroke-linecap:butt;stroke-linejoin:miter;stroke:rgb(0%,0%,100%);stroke-opacity:1;stroke-miterlimit:10;" d="M 68.976562 193.308594 L 67.808594 174.21875 "/>
<path style=" stroke:none;fill-rule:nonzero;fill:rgb(100%,100%,100%);fill-opacity:1;" d="M 98.378906 219.960938 L 111.378906 219.960938 L 111.378906 238.960938 L 98.378906 238.960938 Z M 98.378906 219.960938 "/>
<g style="fill:rgb(100%,0%,0%);fill-opacity:1;">
  <use xlink:href="#glyph0-1" x="98.378906" y="234.8125"/>
</g>
<path style="fill:none;stroke-width:1.2;stroke-linecap:butt;stroke-linejoin:miter;stroke:rgb(0%,0%,100%);stroke-opacity:1;stroke-miterlimit:10;" d="M 67.808594 174.21875 L 50.691406 165.6875 "/>
<path style="fill:none;stroke-width:1.2;stroke-linecap:butt;stroke-linejoin:miter;stroke:rgb(0%,0%,0%);stroke-opacity:1;stroke-miterlimit:10;" d="M 50.691406 165.6875 L 33.578125 157.152344 "/>
<path style="fill:none;stroke-width:1.2;stroke-linecap:butt;stroke-linejoin:miter;stroke:rgb(0%,0%,0%);stroke-opacity:1;stroke-miterlimit:10;" d="M 99.703125 153.105469 L 83.757812 163.660156 "/>
<path style="fill:none;stroke-width:1.2;stroke-linecap:butt;stroke-linejoin:miter;stroke:rgb(0%,0%,100%);stroke-opacity:1;stroke-miterlimit:10;" d="M 83.757812 163.660156 L 67.808594 174.21875 "/>
<path style=" stroke:none;fill-rule:nonzero;fill:rgb(100%,100%,100%);fill-opacity:1;" d="M 61.808594 164.71875 L 73.808594 164.71875 L 73.808594 183.71875 L 61.808594 183.71875 Z M 61.808594 164.71875 "/>
<g style="fill:rgb(0%,0%,100%);fill-opacity:1;">
  <use xlink:href="#glyph0-2" x="61.808594" y="179.570312"/>
</g>
<path style="fill:none;stroke-width:1.2;stroke-linecap:butt;stroke-linejoin:miter;stroke:rgb(0%,0%,0%);stroke-opacity:1;stroke-miterlimit:10;" d="M 33.578125 157.152344 L 31.238281 118.976562 "/>
<path style="fill:none;stroke-width:1.2;stroke-linecap:butt;stroke-linejoin:miter;stroke:rgb(0%,0%,0%);stroke-opacity:1;stroke-miterlimit:10;" d="M 31.238281 118.976562 L 63.136719 97.863281 "/>
<path style="fill:none;stroke-width:1;stroke-linecap:butt;stroke-linejoin:miter;stroke:rgb(0%,0%,0%);stroke-opacity:1;stroke-miterlimit:10;" d="M 97.367188 114.925781 L 97.367188 114.925781 M 94.957031 113.140625 L 94.492188 114.074219 M 92.542969 111.359375 L 91.613281 113.222656 M 90.132812 109.574219 L 88.738281 112.371094 M 87.722656 107.789062 L 85.859375 111.519531 M 85.308594 106.003906 L 82.984375 110.667969 M 82.898438 104.21875 L 80.109375 109.816406 M 80.488281 102.433594 L 77.230469 108.964844 M 78.074219 100.648438 L 74.355469 108.113281 M 75.664062 98.863281 L 71.476562 107.261719 M 73.253906 97.082031 L 68.601562 106.410156 M 70.839844 95.296875 L 65.722656 105.558594 M 68.429688 93.511719 L 62.847656 104.710938 M 66.148438 91.820312 L 60.125 103.902344 "/>
<path style="fill:none;stroke-width:1.2;stroke-linecap:butt;stroke-linejoin:miter;stroke:rgb(0%,0%,0%);stroke-opacity:1;stroke-miterlimit:10;" d="M 97.367188 114.925781 L 99.703125 153.105469 "/>
<path style="fill:none;stroke-width:1.2;stroke-linecap:butt;stroke-linejoin:miter;stroke:rgb(0%,0%,0%);stroke-opacity:1;stroke-miterlimit:10;" d="M 97.367188 114.925781 L 99.035156 76.714844 "/>
<path style="fill:none;stroke-width:1.2;stroke-linecap:butt;stroke-linejoin:miter;stroke:rgb(0%,0%,0%);stroke-opacity:1;stroke-miterlimit:10;" d="M 133.195312 128.320312 L 97.367188 114.925781 "/>
<path style="fill:none;stroke-width:1.2;stroke-linecap:butt;stroke-linejoin:miter;stroke:rgb(0%,0%,0%);stroke-opacity:1;stroke-miterlimit:10;" d="M 99.035156 76.714844 L 135.890625 66.488281 "/>
<path style="fill:none;stroke-width:1.2;stroke-linecap:butt;stroke-linejoin:miter;stroke:rgb(0%,0%,0%);stroke-opacity:1;stroke-miterlimit:10;" d="M 135.890625 66.488281 L 146.449219 82.4375 "/>
<path style="fill:none;stroke-width:1.2;stroke-linecap:butt;stroke-linejoin:miter;stroke:rgb(0%,0%,100%);stroke-opacity:1;stroke-miterlimit:10;" d="M 146.449219 82.4375 L 157.003906 98.382812 "/>
<path style="fill:none;stroke-width:1.2;stroke-linecap:butt;stroke-linejoin:miter;stroke:rgb(0%,0%,100%);stroke-opacity:1;stroke-miterlimit:10;" d="M 157.003906 98.382812 L 145.101562 113.351562 "/>
<path style="fill:none;stroke-width:1.2;stroke-linecap:butt;stroke-linejoin:miter;stroke:rgb(0%,0%,0%);stroke-opacity:1;stroke-miterlimit:10;" d="M 145.101562 113.351562 L 133.195312 128.320312 "/>
<path style="fill:none;stroke-width:1.2;stroke-linecap:butt;stroke-linejoin:miter;stroke:rgb(0%,0%,100%);stroke-opacity:1;stroke-miterlimit:10;" d="M 157.003906 98.382812 L 176.113281 99.21875 "/>
<path style="fill:none;stroke-width:1.2;stroke-linecap:butt;stroke-linejoin:miter;stroke:rgb(0%,0%,0%);stroke-opacity:1;stroke-miterlimit:10;" d="M 176.113281 99.21875 L 195.21875 100.050781 "/>
<path style=" stroke:none;fill-rule:nonzero;fill:rgb(100%,100%,100%);fill-opacity:1;" d="M 151.003906 88.882812 L 163.003906 88.882812 L 163.003906 107.882812 L 151.003906 107.882812 Z M 151.003906 88.882812 "/>
<g style="fill:rgb(0%,0%,100%);fill-opacity:1;">
  <use xlink:href="#glyph0-2" x="151.003906" y="103.734375"/>
</g>
<path style="fill:none;stroke-width:1.2;stroke-linecap:butt;stroke-linejoin:miter;stroke:rgb(0%,0%,0%);stroke-opacity:1;stroke-miterlimit:10;" d="M 195.21875 100.050781 L 212.882812 133.976562 "/>
<path style="fill:none;stroke-width:1.2;stroke-linecap:butt;stroke-linejoin:miter;stroke:rgb(0%,0%,0%);stroke-opacity:1;stroke-miterlimit:10;" d="M 212.882812 133.976562 L 192.332031 166.238281 "/>
<path style="fill:none;stroke-width:1.2;stroke-linecap:butt;stroke-linejoin:miter;stroke:rgb(0%,0%,0%);stroke-opacity:1;stroke-miterlimit:10;" d="M 218.417969 142.039062 L 201.976562 167.847656 "/>
<path style="fill:none;stroke-width:1.2;stroke-linecap:butt;stroke-linejoin:miter;stroke:rgb(0%,0%,0%);stroke-opacity:1;stroke-miterlimit:10;" d="M 251.097656 135.644531 L 212.882812 133.976562 "/>
<path style="fill:none;stroke-width:1.2;stroke-linecap:butt;stroke-linejoin:miter;stroke:rgb(0%,0%,0%);stroke-opacity:1;stroke-miterlimit:10;" d="M 192.332031 166.238281 L 209.996094 200.167969 "/>
<path style="fill:none;stroke-width:1.2;stroke-linecap:butt;stroke-linejoin:miter;stroke:rgb(0%,0%,0%);stroke-opacity:1;stroke-miterlimit:10;" d="M 209.996094 200.167969 L 248.210938 201.832031 "/>
<path style="fill:none;stroke-width:1.2;stroke-linecap:butt;stroke-linejoin:miter;stroke:rgb(0%,0%,0%);stroke-opacity:1;stroke-miterlimit:10;" d="M 214.210938 191.339844 L 244.78125 192.675781 "/>
<path style="fill:none;stroke-width:1.2;stroke-linecap:butt;stroke-linejoin:miter;stroke:rgb(0%,0%,0%);stroke-opacity:1;stroke-miterlimit:10;" d="M 248.210938 201.832031 L 268.761719 169.570312 "/>
<path style="fill:none;stroke-width:1.2;stroke-linecap:butt;stroke-linejoin:miter;stroke:rgb(0%,0%,0%);stroke-opacity:1;stroke-miterlimit:10;" d="M 268.761719 169.570312 L 251.097656 135.644531 "/>
<path style="fill:none;stroke-width:1.2;stroke-linecap:butt;stroke-linejoin:miter;stroke:rgb(0%,0%,0%);stroke-opacity:1;stroke-miterlimit:10;" d="M 259.011719 170.335938 L 244.878906 143.195312 "/>
</g>
</svg>

<svg xmlns="http://www.w3.org/2000/svg" xmlns:xlink="http://www.w3.org/1999/xlink" width="300pt" height="300pt" viewBox="0 0 300 300"><defs><symbol overflow="visible"><path d="M.797 2.828v-14.11h8V2.83zm.906-.89h6.203v-12.33H1.703zm0 0"/></symbol><symbol overflow="visible" id="a"><path d="M6.313-10.594c-1.15 0-2.06.43-2.735 1.28-.68.857-1.015 2.017-1.015 3.486 0 1.47.335 2.633 1.015 3.484.676.856 1.586 1.28 2.735 1.28 1.144.002 2.05-.424 2.718-1.28.665-.85 1-2.015 1-3.484 0-1.47-.335-2.63-1-3.484-.667-.852-1.573-1.282-2.717-1.282zm0-1.28c1.632 0 2.94.546 3.92 1.64.978 1.093 1.47 2.562 1.47 4.406 0 1.844-.492 3.32-1.47 4.422-.98 1.093-2.288 1.64-3.92 1.64-1.65 0-2.96-.546-3.938-1.64-.98-1.102-1.47-2.578-1.47-4.422 0-1.844.49-3.313 1.47-4.406.977-1.094 2.29-1.64 3.938-1.64zm0 0"/></symbol><symbol overflow="visible" id="b"><path d="M1.578-11.672h2.125l5.172 9.766v-9.766h1.53V0H8.282L3.11-9.766V0H1.577zm0 0"/></symbol></defs><g><path fill="#fff" d="M0 0h300v300H0z"/><path d="M38.25 233.512l31.895-21.114M68.14 216.426l17.114 8.53" stroke-width="1.2" stroke="#000" stroke-miterlimit="10" fill="none"/><path d="M85.254 224.957l17.117 8.53" stroke-width="1.2" stroke="#f00" stroke-miterlimit="10" fill="none"/><path d="M72.152 208.37l17.118 8.532" stroke-width="1.2" stroke="#000" stroke-miterlimit="10" fill="none"/><path d="M89.27 216.902l17.117 8.532" stroke-width="1.2" stroke="#f00" stroke-miterlimit="10" fill="none"/><path d="M70.145 212.398l-1.168-19.09" stroke-width="1.2" stroke="#000" stroke-miterlimit="10" fill="none"/><path d="M68.977 193.31l-1.168-19.09" stroke-width="1.2" stroke="#00f" stroke-miterlimit="10" fill="none"/><path d="M98.38 219.96h13v19h-13zm0 0" fill="#fff"/><use xlink:href="#a" x="98.379" y="234.813" fill="#f00"/><path d="M67.81 174.22l-17.12-8.532" stroke-width="1.2" stroke="#00f" stroke-miterlimit="10" fill="none"/><path d="M50.69 165.688L33.58 157.15M99.703 153.105L83.758 163.66" stroke-width="1.2" stroke="#000" stroke-miterlimit="10" fill="none"/><path d="M83.758 163.66l-15.95 10.56" stroke-width="1.2" stroke="#00f" stroke-miterlimit="10" fill="none"/><path d="M61.81 164.72h12v19h-12zm0 0" fill="#fff"/><use xlink:href="#b" x="61.809" y="179.57" fill="#00f"/><path d="M33.578 157.152l-2.34-38.175M31.238 118.977l31.9-21.114" stroke-width="1.2" stroke="#000" stroke-miterlimit="10" fill="none"/><path d="M97.367 114.926m-2.41-1.785l-.465.934m-1.95-2.715l-.93 1.863m-1.48-3.65l-1.394 2.798m-1.015-4.58l-1.864 3.73m-.55-5.516l-2.326 4.664m-.086-6.45l-2.79 5.598m.38-7.382l-3.258 6.53m.844-8.316l-3.72 7.465m1.31-9.25l-4.187 8.4m1.777-10.18l-4.652 9.327m2.238-11.113l-5.117 10.262M68.43 93.51l-5.582 11.2m3.3-12.892l-6.023 12.082" stroke="#000" stroke-miterlimit="10" fill="none"/><path d="M97.367 114.926l2.336 38.18M97.367 114.926l1.668-38.21M133.195 128.32l-35.828-13.394M99.035 76.715l36.856-10.227M135.89 66.488l10.56 15.95" stroke-width="1.2" stroke="#000" stroke-miterlimit="10" fill="none"/><path d="M146.45 82.438l10.554 15.945M157.004 98.383l-11.902 14.97" stroke-width="1.2" stroke="#00f" stroke-miterlimit="10" fill="none"/><path d="M145.102 113.352l-11.907 14.968" stroke-width="1.2" stroke="#000" stroke-miterlimit="10" fill="none"/><path d="M157.004 98.383l19.11.836" stroke-width="1.2" stroke="#00f" stroke-miterlimit="10" fill="none"/><path d="M176.113 99.22l19.106.83" stroke-width="1.2" stroke="#000" stroke-miterlimit="10" fill="none"/><path d="M151.004 88.883h12v19h-12zm0 0" fill="#fff"/><use xlink:href="#b" x="151.004" y="103.734" fill="#00f"/><path d="M195.22 100.05l17.663 33.927M212.883 133.977l-20.55 32.26M218.418 142.04l-16.44 25.808M251.098 135.645l-38.215-1.668M192.332 166.238l17.664 33.93M209.996 200.168l38.215 1.664M214.21 191.34l30.57 1.336M248.21 201.832l20.552-32.262M268.762 169.57l-17.664-33.925M259.012 170.336l-14.133-27.14" stroke-width="1.2" stroke="#000" stroke-miterlimit="10" fill="none"/></g></svg>
